assets/Face savoring food/Flat/face_savoring_food_flat.svg

<svg width="32" height="32" viewBox="0 0 32 32" fill="none" xmlns="http://www.w3.org/2000/svg">
<path d="M15.9989 29.9978C25.3333 29.9978 29.9978 23.7303 29.9978 15.9989C29.9978 8.26751 25.3333 2 15.9989 2C6.66443 2 2 8.26751 2 15.9989C2 23.7303 6.66443 29.9978 15.9989 29.9978Z" fill="#FFB02E"/>
<path d="M8.98156 11.1909C9.02964 10.9436 9.13971 10.6405 9.34896 10.4125C9.52829 10.2171 9.84698 10 10.4999 10C11.1417 10 11.4685 10.2216 11.6572 10.4288C11.8753 10.6683 11.9804 10.9737 12.0147 11.1711C12.1092 11.7152 12.6269 12.0797 13.171 11.9853C13.7152 11.8908 14.0797 11.373 13.9852 10.8289C13.9062 10.374 13.6799 9.6794 13.1357 9.08196C12.562 8.45218 11.6955 8 10.4999 8C9.31564 8 8.45269 8.4313 7.87551 9.06013C7.32826 9.65637 7.10696 10.3533 7.01833 10.8091C6.91291 11.3513 7.26694 11.8762 7.80907 11.9816C8.3512 12.087 8.87614 11.733 8.98156 11.1909Z" fill="#402A32"/>
<path d="M19.9818 11.1909C20.0299 10.9436 20.14 10.6405 20.3492 10.4125C20.5285 10.2171 20.8472 10 21.5002 10C22.1419 10 22.4687 10.2216 22.6574 10.4288C22.8756 10.6683 22.9807 10.9737 23.0149 11.1711C23.1094 11.7152 23.6271 12.0797 24.1713 11.9853C24.7154 11.8908 25.0799 11.373 24.9854 10.8289C24.9064 10.374 24.6802 9.6794 24.1359 9.08196C23.5623 8.45218 22.6957 8 21.5002 8C20.3159 8 19.4529 8.4313 18.8758 9.06013C18.3285 9.65637 18.1072 10.3533 18.0186 10.8091C17.9132 11.3513 18.2672 11.8762 18.8093 11.9816C19.3514 12.087 19.8764 11.733 19.9818 11.1909Z" fill="#402A32"/>
<path d="M18.3683 22.3683L15.5 19.5L23.5 16L24.455 18.292C25.2894 20.2946 24.2473 22.5842 22.1892 23.2703C20.8475 23.7175 19.3683 23.3683 18.3683 22.3683Z" fill="#F70A8D"/>
<path d="M8.40006 15.2C8.84189 14.8686 9.46869 14.9582 9.80006 15.4C10.0981 15.7973 11.7922 17.5 16.0001 17.5C20.2079 17.5 21.9021 15.7973 22.2001 15.4C22.5314 14.9582 23.1582 14.8686 23.6001 15.2C24.0419 15.5314 24.1314 16.1582 23.8001 16.6C23.0981 17.536 20.7922 19.5 16.0001 19.5C11.2079 19.5 8.90206 17.536 8.20006 16.6C7.86869 16.1582 7.95823 15.5314 8.40006 15.2Z" fill="#402A32"/>
</svg>

<svg xmlns="http://www.w3.org/2000/svg" width="32" height="32" fill="none"><path fill="#FFB02E" d="M15.999 29.998c9.334 0 13.999-6.268 13.999-14 0-7.73-4.665-13.998-14-13.998C6.665 2 2 8.268 2 15.999c0 7.731 4.664 13.999 13.999 13.999Z"/><path fill="#402A32" d="M8.982 11.19c.048-.246.158-.55.367-.777.18-.196.498-.413 1.15-.413.643 0 .97.222 1.158.429.218.24.323.545.358.742a1 1 0 0 0 1.97-.342 3.544 3.544 0 0 0-.85-1.747C12.563 8.452 11.696 8 10.5 8c-1.184 0-2.047.431-2.624 1.06-.548.596-.769 1.293-.858 1.75a1 1 0 1 0 1.964.38ZM19.982 11.19c.048-.246.158-.55.367-.777.18-.196.498-.413 1.151-.413.642 0 .969.222 1.157.429.219.24.324.545.358.742a1 1 0 0 0 1.97-.342 3.543 3.543 0 0 0-.85-1.747C23.563 8.452 22.696 8 21.5 8c-1.184 0-2.047.431-2.624 1.06-.548.596-.769 1.293-.857 1.75a1 1 0 1 0 1.963.38Z"/><path fill="#F70A8D" d="M18.368 22.368 15.5 19.5l8-3.5.955 2.292a3.734 3.734 0 0 1-6.087 4.076Z"/><path fill="#402A32" d="M8.4 15.2a1 1 0 0 1 1.4.2c.298.397 1.992 2.1 6.2 2.1s5.902-1.703 6.2-2.1a1 1 0 1 1 1.6 1.2c-.702.936-3.008 2.9-7.8 2.9s-7.098-1.964-7.8-2.9a1 1 0 0 1 .2-1.4Z"/></svg>
